X:1
T:Title
%%score ( 1 2 ) { 3 | 4 }
L:1/8
Q:1/4=109
M:4/4
K:Eb
V:1 treble nm="Grand Piano, Unnamed-000"
V:2 treble 
V:3 bass nm="Choir Pad, Morwellham, 86.86.86"
V:4 bass 
V:1
 GA [EB]2 [Ec]2 [EB]2 | [DG]2 [CE]2 [EA]2 [EG]2 | CD [B,E]2 [DF]2 [EG]2 | [EA]2 [DF]6 | %4
w: By~Charles~Henry~Steggall,~1890 * * * *||||
 GF E2 [CE]2 [B,E]2 | [DF]2 [EG]2 [F=A]2 [FB]2 | Bc [Fd]2 [DB]2 c2- | [Fc]c [DB]6 | %8
w: ||||
 [EB]2 [Ec]2 [Fd]2 [EB]2 | [Gc]2 [FA]2 D-[DF] [EB]2 | EF [EG]2 [EA]2 [EF]2 | DE E6- | E2 z2 z4 |] %13
w: |||||
V:2
 E2 z2 z4 | x8 | x8 | x8 | D2 z2 z4 | x8 | E2 z2 z2 G2 | x8 | x8 | z4 .G2 z2 | x8 | x8 | x8 |] %13
V:3
 E,F, G,2 A,2 G,2 | B,2 G,2 C2 B,2 | A,2 B,2 A,2 B,2 | C2 B,6 | A,2 G,2 A,2 B,2 | A,2 B,2 C2 D2 | %6
 G,=A, B,2 B,2 B,2 | =A,2 B,6 | B,2 A,2 A,2 B,2 | E2 C2 B,2 B,2 | G,A, B,2 C2 B,2 | A,2 G,6- | %12
 G,2 z2 z4 |] %13
V:4
 z2 E,2 E,2 E,2 | B,,2 C,2 A,,2 E,2 | z2 G,2 F,2 E,2 | A,,2 B,,6 | B,,2 C,2 z2 G,2 | %5
 F,2 E,2 E,2 D,2 | C,2 B,,2 G,2 E,2 | F,2 B,,6 | G,2 z2 F,2 G,2 | E,2 F,2 A,2 G,2 | %10
 C,2 B,,2 A,,2 B,,2 | B,,2 E,6- | E,2 z2 z4 |] %13

